app/images/icon/icon-svg/laboratory.svg

<svg width="110" height="110" viewBox="0 0 110 110" fill="none" xmlns="http://www.w3.org/2000/svg">
<path d="M100.332 45.1172H97.1094V18.7838C100.861 17.4537 103.555 13.8695 103.555 9.66797C103.555 4.33705 99.2176 0 93.8867 0H68.1055C62.7746 0 58.4375 4.33705 58.4375 9.66797C58.4375 13.8695 61.1314 17.4537 64.8828 18.7838V45.1172H45.1172V18.7838C48.8686 17.4537 51.5625 13.8695 51.5625 9.66797C51.5625 4.33705 47.2254 0 41.8945 0H16.1133C10.7824 0 6.44531 4.33705 6.44531 9.66797C6.44531 13.8695 9.13924 17.4537 12.8906 18.7838V45.1172H9.66797C4.33705 45.1172 0 49.4542 0 54.7852V100.332C0 105.663 4.33705 110 9.66797 110H100.332C105.663 110 110 105.663 110 100.332V54.7852C110 49.4542 105.663 45.1172 100.332 45.1172ZM68.1055 6.44531H93.8867C95.6637 6.44531 97.1094 7.891 97.1094 9.66797C97.1094 11.4449 95.6637 12.8906 93.8867 12.8906C92.107 12.8906 90.6641 14.3335 90.6641 16.1133V32.2266H80.9961C79.2163 32.2266 77.7734 33.6695 77.7734 35.4492C77.7734 37.229 79.2163 38.6719 80.9961 38.6719H90.6641V45.1172H71.3281V16.1133C71.3281 14.3335 69.8852 12.8906 68.1055 12.8906C66.3285 12.8906 64.8828 11.4449 64.8828 9.66797C64.8828 7.891 66.3285 6.44531 68.1055 6.44531ZM80.9961 64.4531H90.6641V80.9961C90.6641 86.327 86.327 90.6641 80.9961 90.6641C75.6652 90.6641 71.3281 86.327 71.3281 80.9961V51.5625H90.6641V58.0078H80.9961C79.2163 58.0078 77.7734 59.4507 77.7734 61.2305C77.7734 63.0102 79.2163 64.4531 80.9961 64.4531ZM16.1133 6.44531H41.8945C43.6715 6.44531 45.1172 7.891 45.1172 9.66797C45.1172 11.4449 43.6715 12.8906 41.8945 12.8906C40.1148 12.8906 38.6719 14.3335 38.6719 16.1133V32.2266H29.0039C27.2241 32.2266 25.7812 33.6695 25.7812 35.4492C25.7812 37.229 27.2241 38.6719 29.0039 38.6719H38.6719V45.1172H19.3359V16.1133C19.3359 14.3335 17.893 12.8906 16.1133 12.8906C14.3363 12.8906 12.8906 11.4449 12.8906 9.66797C12.8906 7.891 14.3363 6.44531 16.1133 6.44531ZM29.0039 64.4531H38.6719V80.9961C38.6719 86.327 34.3348 90.6641 29.0039 90.6641C23.673 90.6641 19.3359 86.327 19.3359 80.9961V51.5625H38.6719V58.0078H29.0039C27.2241 58.0078 25.7812 59.4507 25.7812 61.2305C25.7812 63.0102 27.2241 64.4531 29.0039 64.4531ZM103.555 100.332C103.555 102.109 102.109 103.555 100.332 103.555H9.66797C7.891 103.555 6.44531 102.109 6.44531 100.332V54.7852C6.44531 53.0082 7.891 51.5625 9.66797 51.5625H12.8906V80.9961C12.8906 89.881 20.119 97.1094 29.0039 97.1094C37.8888 97.1094 45.1172 89.881 45.1172 80.9961V51.5625H64.8828V80.9961C64.8828 89.881 72.1112 97.1094 80.9961 97.1094C89.881 97.1094 97.1094 89.881 97.1094 80.9961V51.5625H100.332C102.109 51.5625 103.555 53.0082 103.555 54.7852V100.332Z" fill="#FFC59E"/>
</svg>

<svg width="110" height="110" fill="none" xmlns="http://www.w3.org/2000/svg"><path d="M100.332 45.117h-3.223V18.784c3.752-1.33 6.446-4.914 6.446-9.116 0-5.33-4.337-9.668-9.668-9.668H68.106c-5.331 0-9.668 4.337-9.668 9.668 0 4.202 2.693 7.786 6.445 9.116v26.333H45.117V18.784c3.752-1.33 6.446-4.914 6.446-9.116 0-5.33-4.338-9.668-9.669-9.668h-25.78c-5.332 0-9.669 4.337-9.669 9.668 0 4.202 2.694 7.786 6.446 9.116v26.333H9.668C4.338 45.117 0 49.454 0 54.785v45.547C0 105.663 4.337 110 9.668 110h90.664c5.331 0 9.668-4.337 9.668-9.668V54.785c0-5.33-4.337-9.668-9.668-9.668zM68.106 6.445h25.78a3.226 3.226 0 013.223 3.223 3.226 3.226 0 01-3.222 3.223 3.223 3.223 0 00-3.223 3.222v16.114h-9.668a3.223 3.223 0 000 6.445h9.668v6.445H71.328V16.113a3.223 3.223 0 00-3.222-3.222 3.226 3.226 0 01-3.223-3.223 3.226 3.226 0 013.223-3.223zm12.89 58.008h9.668v16.543c0 5.331-4.337 9.668-9.668 9.668-5.33 0-9.668-4.337-9.668-9.668V51.563h19.336v6.445h-9.668a3.223 3.223 0 000 6.445zM16.113 6.445h25.782a3.226 3.226 0 013.222 3.223 3.226 3.226 0 01-3.222 3.223 3.223 3.223 0 00-3.223 3.222v16.114h-9.668a3.223 3.223 0 000 6.445h9.668v6.445H19.336V16.113a3.223 3.223 0 00-3.223-3.222 3.226 3.226 0 01-3.222-3.223 3.226 3.226 0 013.222-3.223zm12.89 58.008h9.669v16.543c0 5.331-4.337 9.668-9.668 9.668-5.331 0-9.668-4.337-9.668-9.668V51.563h19.336v6.445h-9.668a3.223 3.223 0 000 6.445zm74.552 35.879a3.227 3.227 0 01-3.223 3.223H9.668a3.227 3.227 0 01-3.223-3.223V54.785a3.226 3.226 0 013.223-3.222h3.223v29.433c0 8.885 7.228 16.113 16.113 16.113s16.113-7.228 16.113-16.113V51.563h19.766v29.433c0 8.885 7.228 16.113 16.113 16.113S97.11 89.881 97.11 80.996V51.563h3.223a3.227 3.227 0 013.223 3.222v45.547z" fill="#FFC59E"/></svg>
